packages/svg/suitcase-line.svg

<svg width="1024" height="1024" fill="none" xmlns="http://www.w3.org/2000/svg"><path d="M128 384h768v-64c-.661-18.005-6.997-33.003-19.008-44.992C864.981 263.019 849.984 256.683 832 256H192c-18.005.661-33.003 6.997-44.992 19.008C135.019 287.019 128.683 302.016 128 320v64Zm0 64v320c.661 18.005 6.997 33.003 19.008 44.992C159.019 824.981 174.016 831.317 192 832h64V448H128Zm192 384h384V448H320v384Zm448 0h64c18.005-.661 33.003-6.997 44.992-19.008C888.981 800.981 895.317 785.984 896 768V448H768v384ZM192 192h640c36.011.661 66.176 13.163 90.496 37.504C946.816 253.845 959.317 284.011 960 320v448c-.661 36.011-13.163 66.176-37.504 90.496C898.155 882.816 867.989 895.317 832 896H192c-36.011-.661-66.176-13.163-90.496-37.504C77.184 834.155 64.683 803.989 64 768V320c.661-36.011 13.163-66.176 37.504-90.496C125.845 205.184 156.011 192.683 192 192Zm192-64v64h256v-64H384Zm0-64h256c18.005.661 33.003 6.997 44.992 19.008C696.981 95.018 703.317 110.016 704 128v64c-.661 18.005-6.997 33.003-19.008 44.992C672.981 248.981 657.984 255.317 640 256H384c-18.005-.661-33.003-6.997-44.992-19.008C327.019 224.981 320.683 209.984 320 192v-64c.661-18.005 6.997-33.003 19.008-44.992C351.019 71.018 366.016 64.683 384 64Z" fill="#303133"/></svg>

<svg width="1024" height="1024" viewBox="0 0 1024 1024" fill="none" xmlns="http://www.w3.org/2000/svg">
<path d="M128 384H896V320C895.339 301.995 889.003 286.997 876.992 275.008C864.981 263.019 849.984 256.683 832 256H192C173.995 256.661 158.997 262.997 147.008 275.008C135.019 287.019 128.683 302.016 128 320V384ZM128 448V768C128.661 786.005 134.997 801.003 147.008 812.992C159.019 824.981 174.016 831.317 192 832H256V448H128ZM320 832H704V448H320V832ZM768 832H832C850.005 831.339 865.003 825.003 876.992 812.992C888.981 800.981 895.317 785.984 896 768V448H768V832ZM192 192H832C868.011 192.661 898.176 205.163 922.496 229.504C946.816 253.845 959.317 284.011 960 320V768C959.339 804.011 946.837 834.176 922.496 858.496C898.155 882.816 867.989 895.317 832 896H192C155.989 895.339 125.824 882.837 101.504 858.496C77.184 834.155 64.6827 803.989 64 768V320C64.6613 283.989 77.1627 253.824 101.504 229.504C125.845 205.184 156.011 192.683 192 192V192ZM384 128V192H640V128H384ZM384 64H640C658.005 64.6613 673.003 70.9973 684.992 83.008C696.981 95.0187 703.317 110.016 704 128V192C703.339 210.005 697.003 225.003 684.992 236.992C672.981 248.981 657.984 255.317 640 256H384C365.995 255.339 350.997 249.003 339.008 236.992C327.019 224.981 320.683 209.984 320 192V128C320.661 109.995 326.997 94.9973 339.008 83.008C351.019 71.0187 366.016 64.6827 384 64V64Z" fill="#303133"/>
</svg>
